packages/core/assets/Icons/publish.svg

<svg viewBox="0 0 20 20" fill="none" xmlns="http://www.w3.org/2000/svg">
<path d="M9.16671 9.87504L7.60421 11.4375C7.43754 11.6042 7.23962 11.6841 7.01046 11.6771C6.78129 11.6702 6.58337 11.5834 6.41671 11.4167C6.26393 11.25 6.18407 11.0556 6.17712 10.8334C6.17018 10.6112 6.25004 10.4167 6.41671 10.25L9.41671 7.25004C9.50004 7.16671 9.59032 7.10768 9.68754 7.07296C9.78476 7.03824 9.88893 7.02087 10 7.02087C10.1112 7.02087 10.2153 7.03824 10.3125 7.07296C10.4098 7.10768 10.5 7.16671 10.5834 7.25004L13.5834 10.25C13.75 10.4167 13.8299 10.6112 13.823 10.8334C13.816 11.0556 13.7362 11.25 13.5834 11.4167C13.4167 11.5834 13.2188 11.6702 12.9896 11.6771C12.7605 11.6841 12.5625 11.6042 12.3959 11.4375L10.8334 9.87504V15.8334C10.8334 16.0695 10.7535 16.2674 10.5938 16.4271C10.4341 16.5868 10.2362 16.6667 10 16.6667C9.76393 16.6667 9.56601 16.5868 9.40629 16.4271C9.24657 16.2674 9.16671 16.0695 9.16671 15.8334V9.87504ZM3.33337 6.66671V5.00004C3.33337 4.54171 3.49657 4.14935 3.82296 3.82296C4.14935 3.49657 4.54171 3.33337 5.00004 3.33337H15C15.4584 3.33337 15.8507 3.49657 16.1771 3.82296C16.5035 4.14935 16.6667 4.54171 16.6667 5.00004V6.66671C16.6667 6.90282 16.5868 7.10074 16.4271 7.26046C16.2674 7.42018 16.0695 7.50004 15.8334 7.50004C15.5973 7.50004 15.3993 7.42018 15.2396 7.26046C15.0799 7.10074 15 6.90282 15 6.66671V5.00004H5.00004V6.66671C5.00004 6.90282 4.92018 7.10074 4.76046 7.26046C4.60074 7.42018 4.40282 7.50004 4.16671 7.50004C3.9306 7.50004 3.73268 7.42018 3.57296 7.26046C3.41324 7.10074 3.33337 6.90282 3.33337 6.66671Z" fill="currentColor"/>
</svg>

<svg xmlns="http://www.w3.org/2000/svg" width="20" height="20" fill="none" viewBox="0 0 20 20">
  <path fill="#201F1F" d="m9.167 9.875-1.563 1.563a.775.775 0 0 1-.594.24.85.85 0 0 1-.833-.845.764.764 0 0 1 .24-.583l3-3a.731.731 0 0 1 .27-.177.922.922 0 0 1 .313-.052c.111 0 .215.017.313.052a.731.731 0 0 1 .27.177l3 3a.764.764 0 0 1 .24.583.85.85 0 0 1-.833.844.775.775 0 0 1-.594-.24l-1.563-1.562v5.958c0 .237-.08.434-.24.594a.806.806 0 0 1-.593.24.806.806 0 0 1-.594-.24.806.806 0 0 1-.24-.594V9.875ZM3.333 6.667V5c0-.458.164-.85.49-1.177.326-.326.719-.49 1.177-.49h10c.458 0 .85.164 1.177.49.326.326.49.719.49 1.177v1.667c0 .236-.08.434-.24.593a.806.806 0 0 1-.594.24.806.806 0 0 1-.593-.24.806.806 0 0 1-.24-.593V5H5v1.667c0 .236-.08.434-.24.593a.806.806 0 0 1-.593.24.806.806 0 0 1-.594-.24.806.806 0 0 1-.24-.593Z"/>
</svg>
